icons/unibeautify.svg

<!--
  - The MIT License (MIT)
  -
  - Copyright (c) 2015-2024 Elior "Mallowigi" Boukhobza
  -
  - Permission is hereby granted, free of charge, to any person obtaining a copy
  - of this software and associated documentation files (the "Software"), to deal
  - in the Software without restriction, including without limitation the rights
  - to use, copy, modify, merge, publish, distribute, sublicense, and/or sell
  - copies of the Software, and to permit persons to whom the Software is
  - furnished to do so, subject to the following conditions:
  -
  - The above copyright notice and this permission notice shall be included in all
  - copies or substantial portions of the Software.
  -
  - THE SOFTWARE IS PROVIDED "AS IS", WITHOUT WARRANTY OF ANY KIND, EXPRESS OR
  - IMPLIED, INCLUDING BUT NOT LIMITED TO THE WARRANTIES OF MERCHANTABILITY,
  - FITNESS FOR A PARTICULAR PURPOSE AND NONINFRINGEMENT. IN NO EVENT SHALL THE
  - AUTHORS OR COPYRIGHT HOLDERS BE LIABLE FOR ANY CLAIM, DAMAGES OR OTHER
  - LIABILITY, WHETHER IN AN ACTION OF CONTRACT, TORT OR OTHERWISE, ARISING FROM,
  - OUT OF OR IN CONNECTION WITH THE SOFTWARE OR THE USE OR OTHER DEALINGS IN THE
  - SOFTWARE.
  -
  -->

<svg  version="1.1" xmlns="http://www.w3.org/2000/svg" width="16px" height="16px" viewBox="0 0 395 512">
  <path fill="#FF8A65" data-iconColor="Unibeautify Config"
        d="m79.715473 408.79369c-21.242049-12.24628-21.242053-43.0282-4e-6 -55.27448 21.242041-12.24627 47.938781 3.14468 47.938781 27.63724s-26.69672 39.88354-47.938777 27.63724zm5.980535-10.33719c-13.301628-7.66853-13.301632-26.94396-5e-6 -34.6125 13.301624-7.66854 30.018937 1.96917 30.018937 17.30625 0 15.33707-16.717305 24.97479-30.018932 17.30625zm288.0843-140.31929c-56.3946 27.62368-46.40634 93.8933 0 112.98672 11.71527-38.03352 11.05542-78.03769 0-112.98672zm-105.91136 146.81909c24.62653 0.75371 49.24615 11.28924 67.78082 33.02206-44.35416 44.68864-105.46104 69.25448-166.69277 59.73833 4.84884-59.99013 51.89765-94.19928 98.91195-92.76039zm-196.0953-226.56095v38.9058c0 69.25381 56.341952 125.61201 125.59578 125.61201 69.25797 0 125.60389-56.35404 125.60389-125.61201v-38.89769c20.40579 18.8305 36.57221 42.17931 46.93205 68.43006-69.41725 28.69812-55.94409 112.95538 0 135.5941-6.60834 16.72536-15.57881 32.27324-26.49717 46.22601-72.49189-79.38949-192.06454-14.91711-186.35667 66.91244-82.902716-18.4646-145.08925-92.55136-145.08926-180.9355 0-53.81551 23.068851-102.33333 59.81138-136.23522zm59.811372-161.791v203.60215c3.90113 85.39273 126.39171 88.91489 131.5688 0v-203.59403c16.99852 6.4827 33.0854 15.49515 47.85722 26.99222v173.69646c0 62.67206-50.98202 113.64973-113.64162 113.64973s-113.64162-50.98182-113.64162-113.64973v-173.70458c14.76883-11.49736 30.857287-20.50829 47.857217-26.99222zm119.60652-16.60435v220.2065c-1.01914 69.54946-104.2471 72.73183-107.64424 0v-220.2065c-24.65909 6.03748-72.083655 31.68267-71.773652 40.69933v121.83017c-43.800522 36.22889-71.773655 90.9552-71.773655 152.10107 0 108.82327 88.542004 197.36943 197.36943 197.36943 108.82327 0 197.36943-88.54616 197.36943-197.36943 0-61.14176-27.97009-115.86401-71.76554-152.09295v-121.83017c2.2869-8.35321-51.97678-36.77094-71.78177-40.70745z"/>
</svg>

<svg xmlns="http://www.w3.org/2000/svg" viewBox="0 0 395 512"><path fill="#ff8a65" d="M79.715 408.794c-21.242-12.247-21.242-43.029 0-55.275s47.94 3.145 47.94 27.637-26.697 39.884-47.94 27.638m5.981-10.337c-13.302-7.669-13.302-26.944 0-34.613s30.019 1.97 30.019 17.306-16.717 24.975-30.019 17.306m288.084-140.32c-56.394 27.624-46.406 93.894 0 112.987 11.716-38.034 11.056-78.038 0-112.987M267.87 404.957c24.626.753 49.246 11.289 67.78 33.021-44.353 44.689-105.46 69.255-166.692 59.739 4.849-59.99 51.898-94.2 98.912-92.76M71.774 178.394V217.3c0 69.254 56.342 125.612 125.595 125.612 69.258 0 125.604-56.354 125.604-125.612v-38.898c20.406 18.831 36.573 42.18 46.932 68.43-69.417 28.699-55.944 112.956 0 135.595a185.9 185.9 0 0 1-26.497 46.226c-72.492-79.39-192.064-14.917-186.356 66.912C74.149 477.1 11.962 403.014 11.962 314.63c0-53.816 23.07-102.334 59.812-136.236m59.811-161.79v203.601c3.901 85.393 126.392 88.915 131.569 0V16.612c16.998 6.483 33.085 15.496 47.857 26.993V217.3c0 62.672-50.982 113.65-113.642 113.65S83.728 279.969 83.728 217.3V43.597c14.769-11.498 30.857-20.509 47.857-26.993M251.192 0v220.206c-1.02 69.55-104.248 72.732-107.645 0V0c-24.659 6.037-72.083 31.683-71.773 40.7v121.83C27.974 198.757 0 253.484 0 314.63 0 423.455 88.542 512 197.37 512c108.823 0 197.369-88.546 197.369-197.37 0-61.141-27.97-115.863-71.766-152.092V40.708C325.26 32.353 270.997 3.936 251.192 0" data-iconColor="Unibeautify Config"/></svg>
